dist/svg/object-based/insecure_16.svg

<svg xmlns="http://www.w3.org/2000/svg" viewBox="0 0 16 16"><path d="M10.497 5.61l.003-.005c-.04-.02-.08-.034-.12-.053-.125-.06-.252-.117-.38-.17l-.183-.065c-.13-.046-.262-.087-.395-.123-.064-.017-.13-.035-.194-.05-.14-.032-.282-.057-.426-.078-.06-.01-.12-.02-.18-.028C8.417 5.015 8.21 5 8 5c-.21 0-.417.015-.62.038-.062.007-.12.02-.182.028-.143.02-.285.046-.425.078-.065.015-.13.033-.194.05-.136.036-.267.077-.397.123-.06.02-.122.043-.182.067-.13.05-.255.108-.38.168-.04.02-.08.033-.12.053V4.5C5.5 3.125 6.625 2 8 2c.815 0 1.535.4 1.992 1.008l1.412-1.412C10.577.63 9.364 0 8 0 5.525 0 3.5 2.025 3.5 4.5v2.844c-.004.005 0 .01-.004.015-.625.89-.996 1.974-.996 3.14C2.5 13.525 4.975 16 8 16s5.5-2.475 5.5-5.5c0-2.126-1.225-3.977-3.003-4.89zm.253 6.59L9.7 13.25 8 11.55l-1.7 1.7-1.05-1.05 1.7-1.7-1.7-1.7L6.3 7.75 8 9.45l1.7-1.7 1.05 1.05-1.7 1.7 1.7 1.7z"/></svg>

<?xml version="1.0" encoding="iso-8859-1"?>
<!-- Generator: Adobe Illustrator 20.0.0, SVG Export Plug-In . SVG Version: 6.00 Build 0)  -->
<svg version="1.1" id="Layer_1" xmlns="http://www.w3.org/2000/svg" xmlns:xlink="http://www.w3.org/1999/xlink" x="0px" y="0px"
	 viewBox="0 0 16 16" style="enable-background:new 0 0 16 16;" xml:space="preserve">
<path d="M10.497,5.609L10.5,5.605c-0.039-0.02-0.08-0.034-0.12-0.053c-0.125-0.061-0.252-0.117-0.381-0.169
	C9.939,5.36,9.878,5.338,9.817,5.317C9.687,5.271,9.555,5.23,9.422,5.194c-0.064-0.017-0.129-0.035-0.194-0.05
	c-0.14-0.032-0.282-0.057-0.426-0.078c-0.06-0.009-0.119-0.021-0.18-0.028C8.417,5.015,8.21,5,8,5C7.79,5,7.583,5.015,7.379,5.038
	c-0.061,0.007-0.12,0.019-0.181,0.028C7.055,5.087,6.913,5.112,6.773,5.144c-0.065,0.015-0.13,0.033-0.194,0.05
	C6.444,5.23,6.313,5.271,6.183,5.317C6.122,5.338,6.061,5.36,6.001,5.384C5.871,5.435,5.745,5.492,5.62,5.552
	C5.581,5.571,5.539,5.585,5.5,5.605V4.5C5.5,3.125,6.625,2,8,2c0.815,0,1.535,0.4,1.992,1.008l1.412-1.412C10.577,0.629,9.365,0,8,0
	C5.525,0,3.5,2.025,3.5,4.5v2.844c-0.004,0.005-0.001,0.01-0.004,0.015C2.871,8.251,2.5,9.334,2.5,10.5C2.5,13.525,4.975,16,8,16
	c3.025,0,5.5-2.475,5.5-5.5C13.5,8.374,12.275,6.523,10.497,5.609z M10.75,12.201L9.701,13.25L8,11.549L6.299,13.25L5.25,12.201
	L6.951,10.5L5.25,8.799L6.299,7.75L8,9.451L9.701,7.75l1.049,1.049L9.049,10.5L10.75,12.201z"/>
</svg>
